X:1
T:Eileen Aroon
M:3/4
L:1/4
K:A
 E F G| A3/2 B/2 c| E F G| A3| A d d| d A F| F A B/2c/2| B3/2 A/2 B|\
 A d d| d A F| d/2A/2B/2 A/2d/2 A/2| B3/2 c/2 A| e3/2 d/2c/2 B/2| A2 B|\
 E F G| A2||
